dist/svgs/unicons/line/bitcoin-circle.svg

<svg xmlns="http://www.w3.org/2000/svg" viewBox="0 0 24 24"><path d="M12 1a11 11 0 1011 11A11 11 0 0012 1zm0 20a9 9 0 119-9 9 9 0 01-9 9zm2-14V6a1 1 0 00-2 0v1h-1V6a1 1 0 00-2 0v1H8a1 1 0 000 2h1v6H8a1 1 0 000 2h1v1a1 1 0 002 0v-1h1v1a1 1 0 002 0v-1a3 3 0 003-3 3 3 0 00-.77-2 3 3 0 00.77-2 3 3 0 00-3-3zm0 8h-3v-2h3a1 1 0 010 2zm0-4h-3V9h3a1 1 0 010 2z"/></svg>

<svg xmlns="http://www.w3.org/2000/svg" viewBox="0 0 24 24"><path d="M12,1A11,11,0,1,0,23,12,11,11,0,0,0,12,1Zm0,20a9,9,0,1,1,9-9A9,9,0,0,1,12,21ZM14,7V6a1,1,0,0,0-2,0V7H11V6A1,1,0,0,0,9,6V7H8A1,1,0,0,0,8,9H9v6H8a1,1,0,0,0,0,2H9v1a1,1,0,0,0,2,0V17h1v1a1,1,0,0,0,2,0V17a3,3,0,0,0,3-3,3,3,0,0,0-.77-2A3,3,0,0,0,17,10,3,3,0,0,0,14,7Zm0,8H11V13h3a1,1,0,0,1,0,2Zm0-4H11V9h3a1,1,0,0,1,0,2Z"/></svg>
